src/food-drink/dishware/1F52A.svg

<svg id="emoji" viewBox="0 0 72 72" xmlns="http://www.w3.org/2000/svg">
  <g id="grid">
    <path fill="#b3b3b3" d="M68,4V68H4V4H68m4-4H0V72H72V0Z"/>
    <path fill="none" stroke="#00a5ff" stroke-miterlimit="10" stroke-width="0.1" d="M12.923,10.9583H59.0769A1.9231,1.9231,0,0,1,61,12.8814V59.0352a1.9231,1.9231,0,0,1-1.9231,1.9231H12.9231A1.9231,1.9231,0,0,1,11,59.0352V12.8813A1.923,1.923,0,0,1,12.923,10.9583Z"/>
    <rect x="16" y="4" rx="2.2537" width="40" height="64" fill="none" stroke="#00a5ff" stroke-miterlimit="10" stroke-width="0.1"/>
    <rect x="16" y="4" rx="2.2537" width="40" height="64" transform="translate(72) rotate(90)" fill="none" stroke="#00a5ff" stroke-miterlimit="10" stroke-width="0.1"/>
    <circle cx="36" cy="36" r="29" fill="none" stroke="#00a5ff" stroke-miterlimit="10" stroke-width="0.1"/>
  </g>
  <g id="color">
    <path fill="#3F3F3F" stroke="#3F3F3F" stroke-miterlimit="10" stroke-width="2" d="M24.2722,30.1081 c-3.5449-0.2675-13.7369-0.8052-18.6563,0c0,0-1.3857,0.7557,0,4.6293c0,0,1.2566,0.5474,3,0.5474 c1.491,0,12.8699,1.5386,15.6563,1.1077"/>
    <path fill="#3F3F3F" stroke="none" stroke-linecap="round" stroke-linejoin="round" stroke-miterlimit="10" stroke-width="2" d="M20.4825,30.1081c-3.5449-0.2675-10.9472-0.8052-15.8666,0c0,0-1.3857,1.7557,0,5.6293c0,0,2.2566-0.4526,4-0.4526 c1.491,0,9.4455,1.1901,12.2319,0.7592"/>
    <path fill="#D0CFCE" stroke="none" stroke-linecap="round" stroke-linejoin="round" stroke-miterlimit="10" stroke-width="2" d="M24.2722,39.8493h9.3437c32,0,31.9499-9.7411,31.9499-9.7411H33.6159h-9.3437V39.8493"/>
  </g>
  <g id="hair"/>
  <g id="skin"/>
  <g id="skin-shadow"/>
  <g id="line">
    <path fill="none" stroke="#000000" stroke-linecap="round" stroke-linejoin="round" stroke-miterlimit="10" stroke-width="2" d="M20.4825,30.1081c-3.5449-0.2675-10.9472-0.8052-15.8666,0c0,0-1.3857,1.7557,0,5.6293c0,0,2.2566-0.4526,4-0.4526 c1.491,0,9.4455,1.1901,12.2319,0.7592"/>
    <path fill="none" stroke="#000000" stroke-linecap="round" stroke-linejoin="round" stroke-miterlimit="10" stroke-width="2" d="M24.2722,39.8493h9.3437c32,0,31.9499-9.7411,31.9499-9.7411H33.6159h-9.3437V39.8493"/>
  </g>
</svg>

<svg viewBox="0 0 72 72" xmlns="http://www.w3.org/2000/svg"><path fill="#b3b3b3" d="M68 4v64H4V4h64m4-4H0v72h72V0z"/><path fill="none" stroke="#00a5ff" stroke-miterlimit="10" stroke-width=".1" d="M12.923 10.958h46.154A1.923 1.923 0 0161 12.881v46.154a1.923 1.923 0 01-1.923 1.923H12.923A1.923 1.923 0 0111 59.035V12.881a1.923 1.923 0 011.923-1.923z"/><rect x="16" y="4" rx="2.254" width="40" height="64" fill="none" stroke="#00a5ff" stroke-miterlimit="10" stroke-width=".1"/><rect x="16" y="4" rx="2.254" width="40" height="64" transform="rotate(90 36 36)" fill="none" stroke="#00a5ff" stroke-miterlimit="10" stroke-width=".1"/><circle cx="36" cy="36" r="29" fill="none" stroke="#00a5ff" stroke-miterlimit="10" stroke-width=".1"/><path d="M20.483 30.108c-3.545-.267-10.948-.805-15.867 0 0 0-1.386 1.756 0 5.63 0 0 2.257-.453 4-.453 1.49 0 9.445 1.19 12.232.759m3.424 3.806h9.344c32 0 31.95-9.742 31.95-9.742H24.272v9.741" stroke-linecap="round" stroke-miterlimit="10" stroke-width="6" stroke="#fff" fill="none" stroke-linejoin="round"/><path fill="#3F3F3F" stroke="#3F3F3F" stroke-miterlimit="10" stroke-width="2" d="M24.272 30.108c-3.545-.267-13.737-.805-18.656 0 0 0-1.386.756 0 4.63 0 0 1.257.547 3 .547 1.49 0 12.87 1.538 15.656 1.108"/><path fill="#3F3F3F" d="M20.483 30.108c-3.545-.267-10.948-.805-15.867 0 0 0-1.386 1.756 0 5.63 0 0 2.257-.453 4-.453 1.49 0 9.445 1.19 12.232.759"/><path fill="#D0CFCE" d="M24.272 39.85h9.344c32 0 31.95-9.742 31.95-9.742H24.272v9.741"/><path d="M20.483 30.108c-3.545-.267-10.948-.805-15.867 0 0 0-1.386 1.756 0 5.63 0 0 2.257-.453 4-.453 1.49 0 9.445 1.19 12.232.759m3.424 3.806h9.344c32 0 31.95-9.742 31.95-9.742H24.272v9.741" fill="none" stroke="#000" stroke-linecap="round" stroke-linejoin="round" stroke-miterlimit="10" stroke-width="2"/></svg>
